dist/static/img/yii/03.svg

<svg width="48" height="48" viewBox="0 0 48 48" fill="none" xmlns="http://www.w3.org/2000/svg">
<g clip-path="url(#clip0_1165_2953)">
<path d="M9.66759 25.7549V24.3486H6.12891V30.8158H9.66759V29.4095H7.53516V28.2853H9.51028V26.879H7.53516V25.7549H9.66759Z" fill="white"/>
<path d="M15.0839 29.5498L15.6337 31.0069L16.9494 30.5104L14.6289 24.3613L13.4439 24.3626L11.1035 30.5077L12.4177 31.0082L12.9732 29.5498H15.0839ZM14.5531 28.1436H13.5087L14.0333 26.7661L14.5531 28.1436Z" fill="white"/>
<path d="M20.6968 29.4335C20.2071 29.4335 19.7365 29.2368 19.438 28.9073L18.9659 28.3863L17.9238 29.3305L18.396 29.8516C18.965 30.4795 19.8036 30.8397 20.6968 30.8397C21.8045 30.8397 22.7352 30.1305 22.9096 29.1533C23.0414 28.4153 22.7097 27.4525 21.3836 26.9634C20.7674 26.7362 20.193 26.4889 20.0049 26.4068C19.898 26.3156 19.902 26.1915 19.9095 26.1391C19.9206 26.0613 19.9782 25.8707 20.2704 25.7827C20.9495 25.5781 21.5858 26.0716 21.6158 26.0953L22.1506 26.5448L23.0554 25.4684L22.5172 25.016C22.4679 24.9745 21.2929 24.0058 19.8647 24.4361C19.1353 24.6559 18.619 25.2318 18.5175 25.9392C18.4219 26.6046 18.7105 27.2446 19.2703 27.6096C19.3014 27.6298 19.334 27.6476 19.3679 27.6627C19.3975 27.6759 20.1027 27.9898 20.8968 28.2828C21.0596 28.3429 21.5861 28.5653 21.5252 28.906C21.4789 29.1653 21.1564 29.4335 20.6968 29.4335Z" fill="white"/>
<path d="M27.4013 30.8969L27.4088 27.7925L29.2971 24.8918L28.1186 24.1245L26.7053 26.2956L25.2791 24.1113L24.1016 24.8802L26.0025 27.7915L25.9949 30.8934L27.4013 30.8969Z" fill="white"/>
<path d="M17.6523 40.2666C17.6523 42.0625 19.1133 43.5235 20.9092 43.5235C22.7051 43.5235 24.1661 42.0625 24.1661 40.2666C24.1661 38.4708 22.7051 37.0098 20.9092 37.0098C19.1133 37.0098 17.6523 38.4709 17.6523 40.2666ZM22.7598 40.2666C22.7598 41.2871 21.9297 42.1173 20.9092 42.1173C19.8888 42.1173 19.0586 41.2871 19.0586 40.2666C19.0586 39.2463 19.8888 38.416 20.9092 38.416C21.9296 38.4161 22.7598 39.2463 22.7598 40.2666Z" fill="white"/>
<path d="M15.2836 43.5004V38.4395H16.6996V37.0332H12.4727V38.4395H13.8773V43.5004H15.2836Z" fill="white"/>
<path d="M26.9785 37.0098V41.2274C26.9785 42.4916 28.0753 43.5216 29.4234 43.5235H29.427C30.1265 43.5235 30.803 43.2485 31.2834 42.7688C31.7029 42.35 31.9338 41.8012 31.9338 41.2236V37.0098H30.5275V41.2236C30.5275 41.4311 30.4475 41.6162 30.2897 41.7738C30.0774 41.9857 29.747 42.1173 29.4269 42.1173C29.4263 42.1173 29.4259 42.1173 29.4253 42.1173C28.9331 42.1166 28.3848 41.751 28.3848 41.2274V37.0098H26.9785Z" fill="white"/>
<path d="M35.7469 38.4663C36.426 38.2618 37.0624 38.7553 37.0924 38.7789L37.6272 39.2284L38.532 38.152L37.9938 37.6996C37.9445 37.6581 36.7695 36.6894 35.3413 37.1197C34.6118 37.3395 34.0955 37.9155 33.994 38.623C33.8985 39.2883 34.187 39.9283 34.7469 40.2933C34.778 40.3135 34.8106 40.3312 34.8444 40.3463C34.874 40.3595 35.5793 40.6735 36.3735 40.9664C36.5362 41.0265 37.0627 41.2488 37.0019 41.5896C36.9556 41.8489 36.633 42.1171 36.1733 42.1171C35.6836 42.1171 35.213 41.9204 34.9145 41.5909L34.4424 41.0699L33.4004 42.0141L33.8725 42.5352C34.4416 43.1631 35.2802 43.5233 36.1733 43.5233C37.2811 43.5233 38.2117 42.8141 38.3862 41.8368C38.518 41.0989 38.1863 40.1361 36.8601 39.647C36.2439 39.4198 35.6694 39.1725 35.4815 39.0903C35.3747 38.9992 35.3786 38.8752 35.3861 38.8228C35.3972 38.7449 35.4547 38.5543 35.7469 38.4663Z" fill="white"/>
<path d="M39.9102 43.4768H43.4488V42.0706H41.3164V40.9464H43.2916V39.5402H41.3164V38.416H43.4488V37.0098H39.9102V43.4768Z" fill="white"/>
<path d="M40.9688 45.8916H42.375V47.2979H40.9688V45.8916Z" fill="white"/>
<path d="M45.8906 33.2352H35.0358C35.1138 33.0152 35.1562 32.7784 35.1562 32.5321V27.3722L37.7856 24.7428L41.9399 23.5311L47.302 18.169C47.7521 17.7189 48 17.1187 48 16.479C48 15.8392 47.752 15.239 47.302 14.7889C46.9743 14.4612 46.567 14.2407 46.1227 14.145C46.1808 13.9368 46.2107 13.7192 46.2107 13.4969C46.2107 12.8571 45.9628 12.2569 45.5127 11.8068C45.185 11.4791 44.7777 11.2586 44.3335 11.163C44.5589 10.3578 44.3556 9.4569 43.7235 8.82475C43.4798 8.581 43.1918 8.39715 42.8777 8.27931L46.3749 4.78206C46.825 4.33196 47.0728 3.73187 47.0729 3.09212C47.0729 2.45237 46.825 1.85209 46.3749 1.402C45.4431 0.470215 43.9268 0.470121 42.9949 1.402L34.3485 10.0485L32.2563 6.25778C31.8762 5.56918 31.3598 5.07625 30.7632 4.83231C30.1993 4.60178 29.5825 4.60159 29.0264 4.83203C27.8857 5.30462 27.3183 6.54887 27.6771 7.7905C27.9412 8.70456 28.1107 9.1825 28.2344 9.53153C28.3705 9.91525 28.4269 10.0742 28.4944 10.4997L29.477 16.6864L25.5844 20.579H2.10938C0.946219 20.579 0 21.5252 0 22.6884V24.7978H1.40625V22.6884C1.40625 22.3007 1.72172 21.9853 2.10938 21.9853H33.0469C33.4345 21.9853 33.75 22.3007 33.75 22.6884V32.5322C33.75 32.9198 33.4346 33.2353 33.0469 33.2353H2.10938C1.72172 33.2353 1.40625 32.9198 1.40625 32.5322V26.2039H0V32.5322C0 33.6953 0.946219 34.6415 2.10938 34.6415H8.04244C7.96444 34.8616 7.92197 35.0983 7.92197 35.3447V45.1884C7.92197 46.3516 8.86819 47.2978 10.0313 47.2978H39.5626V45.8915H10.0312C9.64359 45.8915 9.32812 45.5762 9.32812 45.1884V35.3447C9.32812 34.957 9.64359 34.6415 10.0312 34.6415H45.8906C46.2783 34.6415 46.5938 34.957 46.5938 35.3447V45.1884C46.5938 45.5762 46.2783 45.8915 45.8906 45.8915H43.7812V47.2978H45.8906C47.0538 47.2978 48 46.3516 48 45.1884V35.3447C48 34.1815 47.0538 33.2352 45.8906 33.2352ZM33.0469 20.5789H27.5729L30.9781 17.1738L29.8831 10.2791C29.7952 9.72587 29.7066 9.47584 29.5597 9.06146C29.4418 8.72912 29.2804 8.27396 29.0279 7.40012C28.8424 6.75784 29.176 6.29209 29.5645 6.13112C30.082 5.91671 30.628 6.21803 31.025 6.93718L33.3134 11.0834L32.5321 11.8647L33.5264 12.859L43.9892 2.3964C44.3728 2.01287 44.9969 2.01287 45.3805 2.3964C45.565 2.5809 45.6666 2.82793 45.6666 3.09212C45.6666 3.35631 45.5649 3.60325 45.3805 3.78775L40.3436 8.82465C40.3436 8.82465 40.3435 8.82475 40.3434 8.82475L38.2559 10.9123L39.2502 11.9067L41.3377 9.81925C41.7215 9.43562 42.3455 9.43571 42.7291 9.81925C43.1126 10.2029 43.1127 10.8271 42.7291 11.2106L40.3434 13.5962L41.3377 14.5907L43.1281 12.8003C43.3125 12.6165 43.5591 12.5152 43.8227 12.5152C44.0868 12.5152 44.3338 12.6168 44.5183 12.8013C44.7028 12.9858 44.8044 13.2329 44.8044 13.497C44.8044 13.7611 44.7028 14.0081 44.5183 14.1926L42.4308 16.2801L43.4251 17.2744L44.9162 15.7833C45.1007 15.5988 45.3478 15.4972 45.6118 15.4972C45.8758 15.4972 46.1229 15.5988 46.3074 15.7833C46.4919 15.9678 46.5936 16.2149 46.5936 16.479C46.5936 16.7431 46.492 16.9902 46.3075 17.1746L41.2001 22.282L37.0458 23.4937L35.1562 25.3835V22.6883C35.1562 21.5252 34.21 20.5789 33.0469 20.5789Z" fill="white"/>
<path d="M32.3438 2.08887L33.7078 1.74715L34.4123 4.55921L33.0482 4.90093L32.3438 2.08887Z" fill="white"/>
<path d="M35.8789 4.58301L36.5834 1.77095L37.9474 2.11267L37.243 4.92473L35.8789 4.58301Z" fill="white"/>
<path d="M36.2285 15.2686L37.2227 14.2743L38.217 15.2686L37.2227 16.2628L36.2285 15.2686Z" fill="white"/>
<path d="M38.2168 17.2559L39.211 16.2616L40.2052 17.2559L39.211 18.2501L38.2168 17.2559Z" fill="white"/>
</g>
<defs>
<clipPath id="clip0_1165_2953">
<rect width="48" height="48" fill="white"/>
</clipPath>
</defs>
</svg>

<svg width="48" height="48" viewBox="0 0 48 48" fill="none" xmlns="http://www.w3.org/2000/svg"><g clip-path="url(#clip0_1165_2953)" fill="#fff"><path d="M9.668 25.755v-1.406h-3.54v6.467h3.54V29.41H7.535v-1.125H9.51V26.88H7.535v-1.124h2.133zm5.416 3.795l.55 1.457 1.315-.497-2.32-6.149-1.185.002-2.34 6.145 1.314.5.555-1.458h2.11zm-.53-1.406h-1.045l.524-1.378.52 1.378zm6.143 1.289c-.49 0-.96-.196-1.259-.526l-.472-.52-1.042.944.472.52c.569.629 1.408.989 2.3.989 1.108 0 2.04-.71 2.214-1.687.131-.738-.2-1.7-1.526-2.19a27.177 27.177 0 01-1.38-.556.292.292 0 01-.095-.268c.012-.078.07-.268.361-.356.68-.205 1.316.289 1.346.312l.535.45.904-1.077-.538-.452c-.05-.041-1.224-1.01-2.652-.58-.73.22-1.246.796-1.348 1.503a1.687 1.687 0 00.753 1.67c.031.02.064.039.098.054.03.013.735.327 1.529.62.163.06.69.282.628.623-.046.26-.369.527-.828.527zm6.704 1.464l.008-3.104 1.888-2.901-1.178-.767-1.414 2.17-1.426-2.184-1.177.77 1.9 2.91-.007 3.102 1.406.004zm-9.749 9.37a3.26 3.26 0 003.257 3.256 3.26 3.26 0 003.257-3.256 3.26 3.26 0 00-3.257-3.257 3.26 3.26 0 00-3.257 3.257zm5.108 0c0 1.02-.83 1.85-1.85 1.85-1.021 0-1.851-.83-1.851-1.85s.83-1.851 1.85-1.851 1.85.83 1.85 1.85zM15.284 43.5v-5.06H16.7v-1.407h-4.227v1.407h1.404v5.06h1.407zm11.695-6.49v4.217c0 1.265 1.096 2.295 2.444 2.297h.004c.7 0 1.376-.276 1.856-.755.42-.419.65-.968.65-1.545V37.01h-1.405v4.214c0 .207-.08.392-.238.55a1.258 1.258 0 01-.863.343h-.002c-.492 0-1.04-.366-1.04-.89V37.01h-1.407zm8.768 1.456c.679-.204 1.315.29 1.345.313l.535.45.905-1.077-.538-.452c-.05-.042-1.224-1.01-2.653-.58-.73.22-1.245.796-1.347 1.503a1.687 1.687 0 00.753 1.67c.031.02.064.038.097.053.03.014.735.328 1.53.62.162.06.689.283.628.624-.046.259-.369.527-.829.527-.49 0-.96-.197-1.259-.526l-.472-.521-1.042.944.473.521c.569.628 1.407.988 2.3.988 1.108 0 2.039-.709 2.213-1.686.132-.738-.2-1.7-1.526-2.19a26.957 26.957 0 01-1.379-.557.292.292 0 01-.095-.267c.011-.078.069-.269.36-.357zm4.163 5.011h3.539V42.07h-2.133v-1.125h1.976V39.54h-1.976v-1.124h2.133V37.01H39.91v6.467zm1.059 2.415h1.406v1.406h-1.406v-1.406z"/><path d="M45.89 33.235H35.037a2.1 2.1 0 00.12-.703v-5.16l2.63-2.63 4.154-1.21 5.362-5.363c.45-.45.698-1.05.698-1.69 0-.64-.248-1.24-.698-1.69a2.368 2.368 0 00-1.18-.644 2.409 2.409 0 00-.61-2.338 2.367 2.367 0 00-1.178-.644 2.392 2.392 0 00-1.456-2.884l3.497-3.497c.45-.45.698-1.05.698-1.69 0-.64-.248-1.24-.698-1.69a2.393 2.393 0 00-3.38 0l-8.646 8.647-2.093-3.791c-.38-.689-.896-1.182-1.493-1.426a2.268 2.268 0 00-1.737 0c-1.14.473-1.708 1.717-1.349 2.958.264.915.434 1.392.557 1.742.136.383.193.542.26.968l.983 6.186-3.893 3.893H2.11a2.111 2.111 0 00-2.109 2.11v2.109h1.406v-2.11c0-.387.316-.703.703-.703h30.938c.388 0 .703.316.703.703v9.844a.704.704 0 01-.703.703H2.109a.704.704 0 01-.703-.703v-6.328H0v6.328c0 1.163.946 2.11 2.11 2.11h5.932c-.078.22-.12.456-.12.703v9.843c0 1.164.946 2.11 2.11 2.11h29.53V45.89h-29.53a.704.704 0 01-.704-.703v-9.843c0-.388.316-.703.703-.703h35.86c.387 0 .703.315.703.703v9.843a.704.704 0 01-.703.703h-2.11v1.407h2.11A2.111 2.111 0 0048 45.187v-9.843c0-1.163-.946-2.11-2.11-2.11zM33.048 20.58h-5.474l3.405-3.405-1.095-6.895a5.717 5.717 0 00-.323-1.218c-.118-.332-.28-.787-.532-1.66-.186-.643.148-1.109.537-1.27.517-.214 1.063.087 1.46.806l2.288 4.146-.78.782.993.994L43.99 2.396a.985.985 0 011.392 0 .976.976 0 01.286.696.977.977 0 01-.287.696l-5.036 5.037-2.088 2.087.994.995 2.088-2.088a.985.985 0 011.391 1.392l-2.386 2.385.995.995 1.79-1.79a.977.977 0 01.695-.286.976.976 0 01.981.982.976.976 0 01-.286.696l-2.087 2.087.994.994 1.491-1.49a.976.976 0 01.696-.287.976.976 0 01.982.982.976.976 0 01-.287.696L41.2 22.282l-4.154 1.212-1.89 1.89v-2.696c0-1.163-.946-2.11-2.11-2.11z"/><path d="M32.344 2.089l1.364-.342.704 2.812-1.364.342-.704-2.812zm3.535 2.494l.704-2.812 1.364.342-.704 2.812-1.364-.342zm.349 10.686l.995-.995.994.995-.994.994-.995-.994zm1.989 1.987l.994-.994.994.994-.994.994-.994-.994z"/></g><defs><clipPath id="clip0_1165_2953"><path fill="#fff" d="M0 0h48v48H0z"/></clipPath></defs></svg>
